X: 1
T: String Quartet in B\b major opus 1 no 1 mvt 5
C: Franz Joseph Haydn
%%abc-version 2.0
%%abcx-abcm2ps-target-version 5.9.1 (29 Sep 2008)
%%abc-creator hum2abc beta
%%abcx-conversion-date 2021/02/14 14:38:10
%%abc-copyright Copyright (c) 1994, 2000 Center for Computer Assisted Research in the Humanities
%%abc-edited-by Frances Bennion
%%abcx-initial-encoding-date 1997/04/15
%%gracespace 0 6 6
%%humdrum-veritas 2426707767
%%humdrum-veritas-data 3071937485
%%linebreak <none>
%%barnumbers 0
L: 1/8
M: 2/4
N: Derived from op01n1-05.krn
Q: "Presto"
%%staves [1 2 3 4]
V: 1
V: 2
V: 3 clef=alto
V: 4 clef=bass
K: Bb
[V:1]f3 (3g/f/e/ [I:setbarnb2] |
[V:2]d3 (3e/d/c/ |
[V:3]BB BB |
[V:4]B,B, B,B, |
[V:1]d3 (3e/d/c/ |
[V:2]B3 (3G/F/E/ |
[V:3]BB BB |
[V:4]B,B, B,B, |
[V:1]BA Bc |
[V:2]DC DE |
[V:3]B2 z2 |
[V:4]B,2 z2 |
[V:1]de dc |
[V:2]FG FE |
[V:3]B2 z2 |
[V:4]B,2 z2 |
[V:1]BA GF |
[V:2]DF ED |
[V:3]B2 z2 |
[V:4]B,2 z2 |
[V:1]ED z2 |
[V:2]CB, z2 |
[V:3]FB z2 |
[V:4]F,B, z2 |
[V:1]z4 |
[V:2]d3 (3e/d/c/ |
[V:3]F3 (3G/F/E/ |
[V:4]B,B, B,B, |
[V:1]B/d/f/b/ d'/b/a/b/ |
[V:2]B2 z2 |
[V:3]D2 z2 |
[V:4]B,,2 z2 |
[V:1]c'2 z2 |
[V:2]c3 (3d/c/B/ |
[V:3]A3 (3B/A/G/ |
[V:4]F,F, F,F, |
[V:1]A/c/f/a/ c'/a/g/a/ |
[V:2]A2 z2 |
[V:3]F2 z2 |
[V:4]F,,2 z2 |
[V:1]b2 z2 |
[V:2]B3 (3c/B/A/ |
[V:3]G3 (3A/G/F/ |
[V:4]C,C, C,C, |
[V:1]G/B/=e/g/ b/g/f/g/ |
[V:2]G2 z2 |
[V:3]=E2 z2 |
[V:4]C,,2 z2 |
[V:1]a/f/=e/f/ b/f/e/f/ |
[V:2]Fz Fz |
[V:3]FA GB |
[V:4]F,F, G,G, |
[V:1]c'/f/=e/f/ d/f/e/f/ |
[V:2]Fz Fz |
[V:3]Ac Bd |
[V:4]A,A, B,B, |
[V:1]c/f/=e/f/ d/f/e/f/ |
[V:2]Fz Fz |
[V:3]Ac Bd |
[V:4]A,A, B,B, |
[V:1]c/b/a/g/ g2 |
[V:2]Ff2 =e |
[V:3]AB cC |
[V:4]A,B, CC, |
[V:1]f2 z2 |
[V:2]f2 z2 |
[V:3]F2 z2 |
[V:4]F,C, F,,2 |
[V:1]z4 |
[V:2]c3 (3f/=e/d/ |
[V:3]A3 (3d/c/B/ |
[V:4]z4 |
[V:1]zf ff |
[V:2]c2 z2 |
[V:3]A2 z2 |
[V:4]zA, A,A, |
[V:1](3=e/f/g/f ga |
[V:2]z4 |
[V:3]z4 |
[V:4]B,A, G,F, |
[V:1](3g/a/b/a z2 |
[V:2]z4 |
[V:3]z4 |
[V:4]=E,F, z2 |
[V:1]z4 |
[V:2]c3 (3f/=e/d/ |
[V:3]A3 (3d/c/B/ |
[V:4]z4 |
[V:1]zc cc |
[V:2]c2 z2 |
[V:3]A2 z2 |
[V:4]zA, A,A, |
[V:1](3d/=e/f/A (3B/c/d/G |
[V:2]dA BG |
[V:3]BF GC |
[V:4]B,F, G,=E, |
[V:1](3A/B/c/F G2 |
[V:2]AF2 =E |
[V:3]CD B,C |
[V:4]F,D B,C |
[V:1]F/C/A,/C/ F/C/A,/C/ |
[V:2]F2 [F2A2] |
[V:3]F2 F,2 |
[V:4]F,2 F,,2 |
[V:1]F2 z2 |
[V:2][A2F2] z2 |
[V:3]F,2 z2 |
[V:4]F,,2 z2 |
[V:1]z4 |
[V:2]c3 (3d/c/B/ |
[V:3]A3 (3B/A/G/ |
[V:4]F,F, F,F, |
[V:1]z4 |
[V:2]AB cd |
[V:3]FG AB |
[V:4]F,F, F,F, |
[V:1]a4 |
[V:2]ec ec |
[V:3]cA cA |
[V:4]F,F, F,F, |
[V:1]a/b/a/b/ c'/a/f/e/ |
[V:2]ec z2 |
[V:3]cA z2 |
[V:4]F,2 z2 |
[V:1]d2 z2 |
[V:2]d3 (3e/d/c/ |
[V:3]B3 (3c/B/A/ |
[V:4]F,F, F,F, |
[V:1]z4 |
[V:2]Bc de |
[V:3]BA Bc |
[V:4]F,F, F,F, |
[V:1]b4 |
[V:2]fd fd |
[V:3]dB dB |
[V:4]F,F, F,F, |
[V:1]b/a/b/c'/ d'/f/e/d/ |
[V:2]fd z2 |
[V:3]dB z2 |
[V:4]F,2 z2 |
[V:1]e2 z2 |
[V:2]e3 (3f/e/d/ |
[V:3]c3 (3d/c/B/ |
[V:4]F,F, F,F, |
[V:1]F/e/d/e/ c'/e/d/c/ |
[V:2]c2 z2 |
[V:3]A2 z2 |
[V:4]F,2 z2 |
[V:1]d2 z2 |
[V:2]d3 (3e/d/c/ |
[V:3]F3 (3G/F/E/ |
[V:4]F,F, F,F, |
[V:1]F/d/c/d/ b/d/c/B/ |
[V:2]B2 z2 |
[V:3]D2 z2 |
[V:4]F,2 z2 |
[V:1]A/B/c/d/ e/c/d/B/ |
[V:2]F/G/A/B/ cB |
[V:3]FF FF |
[V:4]F,F, F,F, |
[V:1]c2 z2 |
[V:2]A2 z2 |
[V:3]F,2 z2 |
[V:4]F,,2 z2 |
[V:1]f3 (3g/f/e/ |
[V:2]d3 (3e/d/c/ |
[V:3]BB BB |
[V:4]B,B, B,B, |
[V:1]d3 (3e/d/c/ |
[V:2]B3 (3G/F/E/ |
[V:3]BB BB |
[V:4]B,B, B,B, |
[V:1]BA Bc |
[V:2]DC DE |
[V:3]B2 z2 |
[V:4]B,2 z2 |
[V:1]de dc |
[V:2]FG FE |
[V:3]B2 z2 |
[V:4]B,2 z2 |
[V:1]BA GF |
[V:2]DF ED |
[V:3]B2 z2 |
[V:4]B,2 z2 |
[V:1]ED z2 |
[V:2]CB, z2 |
[V:3]FB z2 |
[V:4]F,B, z2 |
[V:1]z4 |
[V:2]g3 (3_a/g/f/ |
[V:3]e3 (3f/e/d/ |
[V:4]B,,B,, B,,B,, |
[V:1]E/G/B/e/ g/e/d/e/ |
[V:2]g2 z2 |
[V:3]e2 z2 |
[V:4]B,,2 z2 |
[V:1]f2 z2 |
[V:2]f3 (3g/f/e/ |
[V:3]d3 (3e/d/c/ |
[V:4]B,,B,, B,,B,, |
[V:1]B/d/f/b/ d'/b/f/d/ |
[V:2]d2 z2 |
[V:3]B2 z2 |
[V:4]B,,2 z2 |
[V:1]e2 z2 |
[V:2]e3 (3f/e/d/ |
[V:3]c3 (3d/c/B/ |
[V:4]F,F, F,F, |
[V:1]A,/C/F/A/ c/e/d/c/ |
[V:2]c2 z2 |
[V:3]A2 z2 |
[V:4]F,,2 z2 |
[V:1]d/B/A/B/ e/B/A/B/ |
[V:2]B,z B,z |
[V:3]B,D CE |
[V:4]B,,B,, C,C, |
[V:1]f/B/A/B/ g/B/A/B/ |
[V:2]B,z B,z |
[V:3]DF EG |
[V:4]D,D, E,E, |
[V:1]f/B/A/B/ g/B/A/B/ |
[V:2]B,z B,z |
[V:3]DF EG |
[V:4]D,D, E,E, |
[V:1]f/d/c/B/ c2 |
[V:2]B,B2 A |
[V:3]DE FF, |
[V:4]D,E, F,F,, |
[V:1]B2 z2 |
[V:2]B2 z2 |
[V:3]B,2 z2 |
[V:4]B,,F,, B,,2 |
[V:1]z4 |
[V:2]F3 (3B/A/G/ |
[V:3]D3 (3G/F/E/ |
[V:4]z4 |
[V:1]zB BB |
[V:2]F2 z2 |
[V:3]D2 z2 |
[V:4]zD, D,D, |
[V:1](3A/B/c/B cd |
[V:2]z4 |
[V:3]z4 |
[V:4]E,D, C,B,, |
[V:1](3c/d/e/d z2 |
[V:2]z4 |
[V:3]z4 |
[V:4]A,,B,, z2 |
[V:1]z4 |
[V:2]F3 (3B/A/G/ |
[V:3]D3 (3G/F/E/ |
[V:4]z4 |
[V:1]zf ff |
[V:2]F2 z2 |
[V:3]D2 z2 |
[V:4]zD DD |
[V:1](3g/a/b/d (3e/f/g/c |
[V:2]gd ec |
[V:3]eB cF |
[V:4]EB, CA, |
[V:1](3d/e/f/B c2 |
[V:2]dB2 A |
[V:3]FG EF |
[V:4]B,G, E,F, |
[V:1]B/F/D/F/ B/F/D/F/ |
[V:2]B2 [B2D2] |
[V:3]B,2 B,2 |
[V:4]B,,2 B,,2 |
[V:1]B2 z2 |]
[V:2][B2D2] z2 |]
[V:3]B,2 z2 |]
[V:4]B,,2 z2 |]

